X:8
T:Jingle Bells (harmony)
C:Pierpont/Monday
M:4/4
K:D
L: 1/4
Q:1/4=200
V: 2 name="Vln II" snm="" clef=treble
!mf! vF F F2 | F F F2 | F A D>E| F2 z2 | vG G G G | G F F F |
 F E E F | E2 A2 | !mf! vF F F2 | F F F2 | F A D>E| F2 z2 | vG G G G |
 G F F F | A A G E | "^Suddenly faster" D2 z2 |\
K:G
!ff! "^With vigor!" [D2G,2] [DG,] [DG,] | [D2G,2] [DG,] [DG,]
"^13" !mf! vD2 D D | D2 D D  | D2 D D | G,2 G, G, | "^17" vG,2 G, G, | D2 D D |
D2 D D | G,2 G, G, | "^21" vD2 D D  | D2 D D | D2 D D | G,2 G, G, |
"^25" vG,2 G, G, | D2 D D | D D D D | .G, z LD2 |
!mf! "^29" vD2 D D | D2 D D | D2 D D | D2 D D | vE2 E E | D2 D D | E2 E E | A2 A A |
!mf! "^29" vD2 D D | D2 D D | D2 D D | D2 D D | vE2 E E | D2 D D | D2 D D | G,2 "^pizz." z2 |
D2 D D | D2 D D | D2 D D | E2 E E |
E2 E E | F2 F F | F2 F F | G2 G G | D2 D D | D2 D D |
D2 D D | E2 E E | "^51" E2 E E | F2 F z "^arco" | F F F F  | .DG z !f!LD2 |
vD2 D D | D2 D D | D2 D>D | D2 D D | vE E E E | D D D D | E E E E | F F F F |
vD2 D D | D2 D D | D2 D>D | D2 D D | vE E E E | D D D D | LF2 LF2 | LA2 LA2 |
LvB LB LB2 | LB LB LB2 | LA2 LA2 | LB2 L.B z |]

